src/lib/images/logo/hydro-drop-white.svg

<svg fill="none" viewBox="0 0 1024 1024" xmlns="http://www.w3.org/2000/svg" xmlns:xlink="http://www.w3.org/1999/xlink"><filter id="a" color-interpolation-filters="sRGB" filterUnits="userSpaceOnUse" height="1224" width="1224" x="-100" y="-100"><feFlood flood-opacity="0" result="BackgroundImageFix"/><feGaussianBlur in="BackgroundImageFix" stdDeviation="50"/><feComposite in2="SourceAlpha" operator="in" result="effect1_backgroundBlur_1628_105"/><feBlend in="SourceGraphic" in2="effect1_backgroundBlur_1628_105" mode="normal" result="shape"/></filter><linearGradient id="b" gradientUnits="userSpaceOnUse" x1="512" x2="512" y1="167" y2="857.08"><stop offset="0" stop-color="#614cb5"/><stop offset="1" stop-color="#3f70ee"/></linearGradient><linearGradient id="c" gradientUnits="userSpaceOnUse" x1="512" x2="512" y1="510.17" y2="855.17"><stop offset="0" stop-color="#8fafff"/><stop offset="1" stop-color="#3d7ddd"/></linearGradient><g filter="url(#a)"><circle cx="512" cy="512" fill="#eee" r="512"/></g><path d="m512 857.08c141.38 0 256-120.15 256-268.36 0-82.9-60.063-195.197-180.19-336.89-15.367-18.127-40.637-46.403-75.81-84.83-37.06 40.54-63.62 70.343-79.68 89.41-117.547 139.533-176.32 250.303-176.32 332.31 0 148.21 114.62 268.36 256 268.36z" fill="url(#b)"/><path d="m512 855.73c106.035 0 192-90.113 192-201.27 0-62.175-45.048-146.398-135.143-252.668-11.524-13.595-30.477-34.802-56.857-63.622-27.795 30.405-47.715 52.757-59.76 67.057-88.16 104.65-132.24 187.728-132.24 249.233 0 111.157 85.965 201.27 192 201.27z" fill="#244a93" fill-opacity=".5"/><path d="m512 855.21c70.69 0 128-60.075 128-134.18 0-41.45-30.032-97.598-90.095-168.445-7.683-9.063-20.318-23.202-37.905-42.415-18.53 20.27-31.81 35.172-39.84 44.705-58.773 69.767-88.16 125.152-88.16 166.155 0 74.105 57.31 134.18 128 134.18z" fill="url(#c)" fill-opacity=".75"/></svg>

<svg viewBox="0 0 1024 1024" fill="none" xmlns="http://www.w3.org/2000/svg">
<g filter="url(#filter0_b_1628_105)">
<circle cx="512" cy="512" r="512" fill="#EEEEEE"/>
</g>
<path d="M512 857.08C653.38 857.08 768 736.93 768 588.72C768 505.82 707.937 393.523 587.81 251.83C572.443 233.703 547.173 205.427 512 167C474.94 207.54 448.38 237.343 432.32 256.41C314.773 395.943 256 506.713 256 588.72C256 736.93 370.62 857.08 512 857.08Z" fill="url(#paint0_linear_1628_105)"/>
<path d="M512 855.73C618.035 855.73 704 765.617 704 654.46C704 592.285 658.952 508.062 568.857 401.792C557.333 388.197 538.38 366.99 512 338.17C484.205 368.575 464.285 390.927 452.24 405.227C364.08 509.877 320 592.955 320 654.46C320 765.617 405.965 855.73 512 855.73Z" fill="#244A93" fill-opacity="0.5"/>
<path d="M512 855.21C582.69 855.21 640 795.135 640 721.03C640 679.58 609.968 623.432 549.905 552.585C542.222 543.522 529.587 529.383 512 510.17C493.47 530.44 480.19 545.342 472.16 554.875C413.387 624.642 384 680.027 384 721.03C384 795.135 441.31 855.21 512 855.21Z" fill="url(#paint1_linear_1628_105)" fill-opacity="0.75"/>
<defs>
<filter id="filter0_b_1628_105" x="-100" y="-100" width="1224" height="1224" filterUnits="userSpaceOnUse" color-interpolation-filters="sRGB">
<feFlood flood-opacity="0" result="BackgroundImageFix"/>
<feGaussianBlur in="BackgroundImageFix" stdDeviation="50"/>
<feComposite in2="SourceAlpha" operator="in" result="effect1_backgroundBlur_1628_105"/>
<feBlend mode="normal" in="SourceGraphic" in2="effect1_backgroundBlur_1628_105" result="shape"/>
</filter>
<linearGradient id="paint0_linear_1628_105" x1="512" y1="167" x2="512" y2="857.08" gradientUnits="userSpaceOnUse">
<stop stop-color="#614CB5"/>
<stop offset="1" stop-color="#3F70EE"/>
</linearGradient>
<linearGradient id="paint1_linear_1628_105" x1="512" y1="510.17" x2="512" y2="855.17" gradientUnits="userSpaceOnUse">
<stop stop-color="#8FAFFF"/>
<stop offset="1" stop-color="#3D7DDD"/>
</linearGradient>
</defs>
</svg>
